src/assets/svg/investment-4.svg

<svg width="41" height="48" viewBox="0 0 41 48" fill="none" xmlns="http://www.w3.org/2000/svg">
<path d="M36.3835 29.7143C36.069 31.8969 35.3054 33.9906 34.1411 35.8633C32.9767 37.7359 31.4369 39.3468 29.6187 40.5943C29.1616 38.6971 26.3506 37.1429 22.6711 36.7086C23.0596 33.9886 23.8595 31.4514 24.408 29.9886C25.2765 30.5371 26.282 30.8571 27.4247 30.8571C35.5379 30.8571 34.2809 17.1429 34.2809 17.1429C34.2809 17.1429 33.1382 19.4286 29.7101 19.4286H27.4247C26.4081 19.4283 25.4099 19.6993 24.5329 20.2136C23.656 20.7279 22.9322 21.467 22.4361 22.3544C21.94 23.2419 21.6897 24.2457 21.7109 25.2622C21.7321 26.2787 22.0242 27.2712 22.5569 28.1371C24.0652 26.56 25.6878 25.1429 27.4247 24C24.408 27.04 22.0998 30.8571 20.5686 34.5143C19.1288 31.7029 17.3233 29.5543 15.9978 28.5714C17.0719 29.0286 18.0775 29.7143 19.0373 30.4C19.2887 29.8514 19.4259 29.2343 19.4259 28.5714C19.3116 22.3314 9.14158 22.8571 9.14158 22.8571C9.85005 23.8171 10.2843 25.0286 10.2843 26.2857V28.5714C10.2843 31.0857 12.3411 33.1429 14.8551 33.1429C15.9978 33.1429 17.0262 32.7314 17.8261 32C18.3517 33.44 18.7402 35.0857 18.9459 36.6629C15.015 37.0057 11.9983 38.6057 11.5184 40.6171C7.33612 37.7143 4.57079 32.8914 4.57079 27.4286C4.57079 18.6057 11.7469 11.4286 20.5686 11.4286V18.2857L31.9955 9.14286L20.5686 0V6.85714C15.1134 6.85714 9.88175 9.02448 6.02439 12.8824C2.16704 16.7403 0 21.9727 0 27.4286C0 32.8845 2.16704 38.1169 6.02439 41.9748C9.88175 45.8327 15.1134 48 20.5686 48C31.1499 48 39.8573 40 41 29.7143H36.3835Z" fill="#00C700"/>
</svg>

<svg xmlns="http://www.w3.org/2000/svg" width="41" height="48" fill="none"><path fill="#00C700" d="M36.384 29.714a15.96 15.96 0 0 1-6.765 10.88c-.457-1.897-3.268-3.451-6.948-3.885.389-2.72 1.189-5.258 1.737-6.72a5.56 5.56 0 0 0 3.017.868c8.113 0 6.856-13.714 6.856-13.714s-1.143 2.286-4.57 2.286h-2.286a5.713 5.713 0 0 0-4.868 8.708c1.508-1.577 3.13-2.994 4.868-4.137-3.017 3.04-5.325 6.857-6.856 10.514-1.44-2.811-3.246-4.96-4.571-5.943 1.074.458 2.08 1.143 3.04 1.829a4.4 4.4 0 0 0 .388-1.829c-.114-6.24-10.284-5.714-10.284-5.714a5.83 5.83 0 0 1 1.142 3.429v2.285a4.585 4.585 0 0 0 4.571 4.572A4.34 4.34 0 0 0 17.826 32c.526 1.44.914 3.086 1.12 4.663-3.931.343-6.948 1.943-7.428 3.954-4.182-2.903-6.947-7.726-6.947-13.188 0-8.823 7.176-16 15.998-16v6.857l11.427-9.143L20.569 0v6.857A20.567 20.567 0 0 0 0 27.43 20.573 20.573 0 0 0 20.569 48C31.149 48 39.857 40 41 29.714z"/></svg>
